X:189
T:Trip to Winchcombe THO3.189, The
O:England;London
M:2/4
L:1/8
Z:vmp. Peter Dunk 2011.from a transcription by Fynn Titford-Mock 2006-9
B:Thompson's Compleat Collection of 200 Favourite Country Dances Vol. III.1765-72
Q:1/4=140
K:G
G2 DG|BGDG|A2 DA|cAFA|G2 DG|BGDG|AcAF|G2[G2G,2]:|
|:gage|dBAG|gfga|bgfe|gage|dBAG|AcAF|G2[G2G,2]:|

